!!!OTL: SCHOE JUNG IS MAI BLUT
!!!ARE: Europa, Mitteleuropa, Deutschland, Bayern
!!!SCT: E1054
!!!YEM: Copyright 1995, estate of Helmut Schaffrath.
**kern
*ICvox
*Ivox
*M3/4
*k[f#]
*G:
{4d
=1
4d
4g
4g
=2
4.a
8a}
{4a
=3
4dd
4dd
4cc
=4
4b
4dd}
{4dd
=5
4dd
4cc
4b
=6
4b
4a
8r}
{8g
=7
4g
4f#
4e
=8
2.f#}
=9
{8d
8r
2dd
=10
4.cc
8a
4f#}
=11
{8dd
8ee
8dd
8ee
8dd
8ee
=12
8dd
8b
2g}
=13
{4e
2cc
=14
4b
2dd}
=15
{8a
8g#
8a
8g#
8a
8b
=16
4g
2dd}
=17
{4a
2dd
=18
4b
4r}
==
!!!AGN: Tanz - Lied, Schnadahuepfel
!!!ONB: ESAC (Essen Associative Code) Database: ERK3
!!!AMT: simple triple
!!!AIN: vox
!!!EED: Helmut Schaffrath
!!!EEV: 1.0
*-
